!!!SOCIAL_FUNCTION:	songs of the double dance
!!!PDT:	1922
!!!OTL: No_49_Double_Dance_Song_(a).krn
!!!REG: Southwest
!!!LANG: Non-Tone
!!!LING_GROUP: Uto-Aztecan
**kern	**kern
*staff2	*staff1
=1-	=1-
*clefF4	*clefF4
*k[f#c#]	*k[f#c#]
*M2/4	*M2/4
4GG/	16B\LK
.	8.B\J
4GG/	4A\
=2	=2
4GG/	4.B\
4GG/	.
.	8A\
=3||	=3||
*M3/4	*M3/4
4GG/	16B\LK
.	8.B\J
4GG/	4A\
4GG/	(16B\LL
.	16A\J)
.	8F#\J
=4||	=4||
*M2/4	*M2/4
2r	16E\LK
.	8.E\J
.	4D\
=5	=5
2r	2D\
=6	=6
2r	16B\LK
.	8.B\J
.	4A\
=7	=7
2r	4.B\
.	8A\
=8||	=8||
*M3/4	*M3/4
2.r	16B\LK
.	8.B\J
.	4A\
.	(16B\LL
.	16A\J)
.	8F#\J
=9||	=9||
*M2/4	*M2/4
2r	4.F#\
.	8A\
=10	=10
2r	4.B\
.	8A\
=11||	=11||
*M3/4	*M3/4
2.r	16B\LK
.	8.B\J
.	4A\
.	(16B\LL
.	16A\J)
.	8F#\J
=12||	=12||
*M2/4	*M2/4
2r	4F#\
.	4F#\
=13	=13
2r	2F#\
==	==
*-	*-
